icons/folder-3-fill.svg

<svg viewBox="0 0 24 24" fill="currentColor" xmlns="http://www.w3.org/2000/svg">
    <path d="M22 8V20C22 20.5523 21.5523 21 21 21H3C2.44772 21 2 20.5523 2 20V7H21C21.5523 7 22 7.44772 22 8ZM12.4142 5H2V4C2 3.44772 2.44772 3 3 3H10.4142L12.4142 5Z"/>
</svg>

<svg xmlns="http://www.w3.org/2000/svg" viewBox="0 0 24 24">
    <g>
        <path fill="none" d="M0 0h24v24H0z"/>
        <path d="M22 8v12a1 1 0 0 1-1 1H3a1 1 0 0 1-1-1V7h19a1 1 0 0 1 1 1zm-9.586-3H2V4a1 1 0 0 1 1-1h7.414l2 2z"/>
    </g>
</svg>
